X: 378
T: Helder Point
%R: reel
Z: 2014 John Chambers <jc:trillian.mit.edu>
B: Preston "Twenty four Country Dances for the Year 1800" p.169 #2
F: http://www.vwml.org/browse/browse-collections-dance-tune-books/browse-prestons1800# 2014-8-10
N: The 2nd strain has initial repeat but no final repeat; not fixed.
M: C|
L: 1/8
K: Gm
F |\
DG-GA BAGF | CF2G AcAF |\
DGBc dcBd | cAFA BG G :|
|: ^f |\
g2dg dg/a/ bg | f2cf cf/g/ af |\
g2dg dcBd | cAFA BG G |]
% - - - - - - - - - - - - - - - - - - - - - - - - -
%%begintext align
%% Lead down the middle twice :|:
%% turn Corners & lead outsides :||:
%%endtext
% - - - - - - - - - - - - - - - - - - - - - - - - -

%%sep 1 1 500
%%sep 1 1 500
